packages/gestalt-icons-android/vr-theme/ic_vr_cloud-server_gestalt.svg

<svg width="24" height="24" viewBox="0 0 24 24" fill="none" xmlns="http://www.w3.org/2000/svg">
<g clip-path="url(#clip0_5459_12)">
<path fill-rule="evenodd" clip-rule="evenodd" d="M8.5 0C5.80989 0 3.57152 1.93077 3.09402 4.48272C1.8476 5.15951 1 6.4798 1 8C1 10.2091 2.79086 12 5 12H11V14H7C4.5297 14 2.47781 15.7915 2.07263 18.1461C0.869654 18.5367 0 19.6668 0 21C0 22.6569 1.34315 24 3 24C4.65685 24 6 22.6569 6 21C6 19.7334 5.21505 18.6501 4.10508 18.2101C4.45179 16.9365 5.61653 16 7 16H11V18.1707C9.83481 18.5825 9 19.6938 9 21C9 22.6569 10.3431 24 12 24C13.6569 24 15 22.6569 15 21C15 19.6938 14.1652 18.5825 13 18.1707V16H17C18.3835 16 19.5482 16.9365 19.8949 18.2101C18.7849 18.6501 18 19.7334 18 21C18 22.6569 19.3431 24 21 24C22.6569 24 24 22.6569 24 21C24 19.6668 23.1303 18.5367 21.9274 18.1461C21.5222 15.7915 19.4703 14 17 14H13V12H19C21.2091 12 23 10.2091 23 8C23 5.92948 21.4268 4.22639 19.4106 4.02082C18.5045 2.22963 16.6469 1 14.5 1C13.7004 1 12.9392 1.17117 12.2525 1.47898C11.2705 0.56247 9.95077 0 8.5 0ZM5.0095 5.23951C5.14219 3.42867 6.65471 2 8.5 2C9.6192 2 10.6154 2.5242 11.2578 3.3445L11.8232 4.06658L12.5914 3.5656C13.1398 3.20793 13.7941 3 14.5 3C16.0224 3 17.3202 3.97251 17.8011 5.33325L18.0368 6H19C20.1046 6 21 6.89543 21 8C21 9.10457 20.1046 10 19 10H5C3.89543 10 3 9.10457 3 8C3 7.12771 3.559 6.38341 4.34133 6.11071L4.96151 5.89453L5.0095 5.23951ZM11 21C11 20.4477 11.4477 20 12 20C12.5523 20 13 20.4477 13 21C13 21.5523 12.5523 22 12 22C11.4477 22 11 21.5523 11 21ZM21 20C20.4477 20 20 20.4477 20 21C20 21.5523 20.4477 22 21 22C21.5523 22 22 21.5523 22 21C22 20.4477 21.5523 20 21 20ZM2 21C2 20.4477 2.44772 20 3 20C3.55228 20 4 20.4477 4 21C4 21.5523 3.55228 22 3 22C2.44772 22 2 21.5523 2 21Z" fill="black"/>
</g>
<defs>
<clipPath id="clip0_5459_12">
<rect width="24" height="24" fill="white"/>
</clipPath>
</defs>
</svg>

<svg xmlns="http://www.w3.org/2000/svg" width="24" height="24"><path d="M8.5 0a5.5 5.5 0 0 0-5.4 4.48A4 4 0 0 0 5 12h6v2H7a5 5 0 0 0-4.93 4.15 3 3 0 1 0 2.04.06A3 3 0 0 1 7 16h4v2.17a3 3 0 1 0 2 0V16h4a3 3 0 0 1 2.9 2.21 3 3 0 1 0 2.03-.06A5 5 0 0 0 17 14h-4v-2h6a4 4 0 0 0 .41-7.98 5.5 5.5 0 0 0-7.16-2.54A5.5 5.5 0 0 0 8.5 0M5.01 5.24a3.5 3.5 0 0 1 6.25-1.9l.56.73.77-.5q.84-.55 1.91-.57a3.5 3.5 0 0 1 3.3 2.33l.24.67H19a2 2 0 1 1 0 4H5a2 2 0 0 1-.66-3.89l.62-.22zM11 21a1 1 0 1 1 2 0 1 1 0 0 1-2 0m11 0a1 1 0 1 1-2 0 1 1 0 0 1 2 0M2 21a1 1 0 1 1 2 0 1 1 0 0 1-2 0"/></svg>
